X: 38300
T: St. Patrick's An Dro
R: polka
M: 2/4
K: Aminor
A/B/c/B/ A2 e2 c2 A2 B2 e2|d/e/d/c/ B2 A/B/c2 A2 B2 E2|
A/B/c/B/ A2 e2 c2 A2 B2 e2|d/e/d/c/ B2 A/B/ (3cBA B/G/ A3 E/|
A/B/c/d/ e2 (3 efe d2 g2 e2 c2|A/B/c/e/d2 d/d/ d/e/d/c/ B2 (3BcB|
A/B/c/d/ e2 (3 efe d2 g2 e2 c2|A/B/c/e/d2 A/B/ (3cBA B/G/ A4|

